X: 7
T: Inisheer
R: waltz
M: 3/4
L: 1/8
K: Amaj
|: c3B ce | c3B ce | F3c Bc | E3c BA |
c3B ce | c3B ce | F3c B/2A/2G |1 A3F EA :|2 A3B ce ||
|| f3g fe | c3B ce | fg fe c/2d/2e | f3B ce |
f3g fe | c3B ce | F3c B/2A/2G | A3B ce ||
|| f3g fe | c3B ce | ag fe c/2d/2e | f3B ce |
f3g fe | c3B ce | E3c B/2A/2G | A6 ||


Tune 211	Setting 12880

